icons/1_Primary/Evernote.svg

<svg width="1024" height="1024" viewBox="0 0 1024 1024" fill="none" xmlns="http://www.w3.org/2000/svg">
<g clip-path="url(#clip0_2_2118)">
<path d="M512 1024C794.77 1024 1024 794.77 1024 512C1024 229.23 794.77 0 512 0C229.23 0 0 229.23 0 512C0 794.77 229.23 1024 512 1024Z" fill="#98DC9A"/>
<path d="M431.4 390C431.4 395.1 430.97 403.59 425.94 409.09C420.46 414.21 412.03 414.62 407 414.62H353.11C337.54 414.62 328.26 414.62 321.96 415.47C318.618 416.089 315.359 417.096 312.25 418.47C311.4 418.88 311.4 418.47 311.82 418.04L434.77 292C435.2 291.57 435.62 291.57 435.2 292.43C433.848 295.556 432.862 298.828 432.26 302.18C431.41 308.54 431.41 317.88 431.41 333.58V390H431.4ZM545.49 771.2C531.2 761.9 523.61 749.6 520.66 742C517.616 734.572 516.033 726.627 516 718.6C516.018 701.624 522.765 685.348 534.761 673.337C546.757 661.326 563.024 654.56 580 654.52C584.2 654.547 588.273 655.961 591.586 658.541C594.9 661.121 597.269 664.723 598.325 668.788C599.381 672.853 599.064 677.152 597.425 681.019C595.786 684.886 592.916 688.103 589.26 690.17C587.02 691.397 584.6 692.261 582.09 692.73C580 693.16 572 694.01 568.22 697.38C564 700.79 560.63 706.3 560.63 712.25C560.61 718.439 563.032 724.386 567.37 728.8C571.11 732.588 575.569 735.591 580.486 737.631C585.402 739.671 590.677 740.708 596 740.68C609.781 740.622 622.975 735.096 632.684 725.315C642.393 715.535 647.823 702.301 647.78 688.52C647.78 662.62 630.52 639.69 607.78 629.52C604.41 627.81 598.95 626.52 593.89 625.25C589.71 624.39 585.5 623.687 581.26 623.14C563.6 621 519.4 607 516.44 567.5C516.44 567.5 503.44 626.91 477.29 643.04C474.21 644.566 470.956 645.711 467.6 646.45C464.555 647.137 461.457 647.565 458.34 647.73C415.82 650.27 370.77 636.68 339.62 604.42C339.62 604.42 318.56 587.01 307.62 538.2C305.1 526.3 300.05 505.07 297.1 485.12C296.09 479.221 295.389 473.272 295 467.3C295 446.5 307.63 432.51 323.63 430.39H409.52C424.24 430.39 432.69 426.55 438.15 421.45C445.32 414.67 447 404.9 447 393.45V303.88C449.07 288.16 463 275 483.61 275H493.72C497.92 275 502.98 275.43 507.61 275.85C511.455 276.473 515.258 277.328 519 278.41C544.68 284.77 550.15 311.09 550.15 311.09C550.15 311.09 598.58 319.58 623 323.83C646.15 328.08 703.43 331.89 714.35 390.05C740.03 528.44 724.46 662.58 723.2 662.58C705.06 793.33 597.29 786.95 597.29 786.95C578.798 787.325 560.662 781.828 545.49 771.25V771.2ZM642.34 493.15C628.43 491.87 616.66 497.42 612.43 508.02C611.58 510.15 610.74 512.69 611.17 513.95C611.344 514.438 611.623 514.882 611.988 515.25C612.352 515.618 612.794 515.902 613.28 516.08C618.34 518.64 626.74 519.9 638.96 521.18C651.18 522.46 659.59 523.31 665.05 522.46C665.588 522.429 666.108 522.254 666.555 521.953C667.001 521.653 667.359 521.237 667.59 520.75C668.44 519.47 668.02 516.91 668.02 514.75C666.75 503.39 656.23 494.9 642.35 493.19L642.34 493.15Z" fill="white"/>
</g>
<defs>
<clipPath id="clip0_2_2118">
<rect width="1024" height="1024" fill="white"/>
</clipPath>
</defs>
</svg>

<svg xmlns="http://www.w3.org/2000/svg" width="1024" height="1024" fill="none">
   <g clip-path="url(#a)">
      <path fill="#98DC9A" d="M512 1024c282.77 0 512-229.23 512-512S794.77 0 512 0 0 229.23 0 512s229.23 512 512 512Z"/>
      <path fill="#fff" d="M431.4 390c0 5.1-.43 13.59-5.46 19.09-5.48 5.12-13.91 5.53-18.94 5.53h-53.89c-15.57 0-24.85 0-31.15.85a43.72 43.72 0 0 0-9.71 3c-.85.41-.85 0-.43-.43L434.77 292c.43-.43.85-.43.43.43a44.278 44.278 0 0 0-2.94 9.75c-.85 6.36-.85 15.7-.85 31.4V390h-.01Zm114.09 381.2c-14.29-9.3-21.88-21.6-24.83-29.2a62.386 62.386 0 0 1-4.66-23.4 64.148 64.148 0 0 1 64-64.08 19.059 19.059 0 0 1 9.26 35.65 24.162 24.162 0 0 1-7.17 2.56c-2.09.43-10.09 1.28-13.87 4.65-4.22 3.41-7.59 8.92-7.59 14.87a23.503 23.503 0 0 0 6.74 16.55A39.942 39.942 0 0 0 596 740.68a51.996 51.996 0 0 0 51.78-52.16c0-25.9-17.26-48.83-40-59-3.37-1.71-8.83-3-13.89-4.27-4.18-.86-8.39-1.563-12.63-2.11C563.6 621 519.4 607 516.44 567.5c0 0-13 59.41-39.15 75.54a42.333 42.333 0 0 1-9.69 3.41 55.377 55.377 0 0 1-9.26 1.28c-42.52 2.54-87.57-11.05-118.72-43.31 0 0-21.06-17.41-32-66.22-2.52-11.9-7.57-33.13-10.52-53.08a171.755 171.755 0 0 1-2.1-17.82c0-20.8 12.63-34.79 28.63-36.91h85.89c14.72 0 23.17-3.84 28.63-8.94 7.17-6.78 8.85-16.55 8.85-28v-89.57c2.07-15.72 16-28.88 36.61-28.88h10.11c4.2 0 9.26.43 13.89.85a96.66 96.66 0 0 1 11.39 2.56c25.68 6.36 31.15 32.68 31.15 32.68s48.43 8.49 72.85 12.74c23.15 4.25 80.43 8.06 91.35 66.22 25.68 138.39 10.11 272.53 8.85 272.53-18.14 130.75-125.91 124.37-125.91 124.37a87.473 87.473 0 0 1-51.8-15.7v-.05Zm96.85-278.05c-13.91-1.28-25.68 4.27-29.91 14.87-.85 2.13-1.69 4.67-1.26 5.93a3.528 3.528 0 0 0 2.11 2.13c5.06 2.56 13.46 3.82 25.68 5.1 12.22 1.28 20.63 2.13 26.09 1.28a3.004 3.004 0 0 0 2.54-1.71c.85-1.28.43-3.84.43-6-1.27-11.36-11.79-19.85-25.67-21.56l-.01-.04Z"/>
   </g>
   <defs>
      <clipPath id="a">
         <path fill="#fff" d="M0 0h1024v1024H0z"/>
      </clipPath>
   </defs>
</svg>
